X:9
T:The Glen of Aherlow
T:Lafferties
R:reel
C:Sean Ryan
O:20th century Ireland
D:An Historic Recording of Irish Music
B:The Hidden Ireland, Sean Ryan
Z:Paul Stewart Cranford (P.S.C.), <http://www.cranfordpub.com>
H:                              copyrights Brian Ryan
L:1/8
Q:333
M:C|
K:Eminor
B2 AF dFAF|EDEF EDB,D|B2 AF dFAF|DFAF FE E2|
B2 AF dFAF|EDEF EDB,A,|B,(E ~E2) B,EFA|dBAF FE E2:|
|:e(B ~B2) efge|f(d ~d2) Adfd|e(B ~B2) egfe|dBAF FE E2|
e(B ~B2) efge|f(d ~d2) Adfd|~B3 d egfe|dBAF FE E2:|
